public/img/Logo/MainLogo4.svg

<svg width="76" height="18" viewBox="0 0 76 18" fill="none" xmlns="http://www.w3.org/2000/svg">
<path d="M8 10H0V18H8V10Z" fill="black"/>
<path d="M46 18L27.1688 0H26.0944H17.7817H17.7511L17.7728 0.0206321L10 18H18.3128L23.6549 5.64324L36.582 18H46Z" fill="black"/>
<g clip-path="url(#clip0_988_1344)">
<path d="M57.4655 9.31839V10.9174H51.895V15.8784H53.5308C54.5673 15.8784 57.2716 15.7439 58.5673 15.4753L58.9399 17.0291C57.1102 17.4475 53.6604 17.4923 52.8348 17.4923H50V9.30345L57.4655 9.31839ZM57.4331 5.3736V6.95767H50.0972V5.3736H57.4331ZM60.0564 5H62V18H60.0564V5Z" fill="black"/>
<path d="M76 9.59099V11.1369H63V9.59099H76ZM63.9532 18V14.1511H73.1391V13.3936H63.8737V11.8631H75.0146V15.6965H65.8446V16.4695H75.2689V18H63.9532ZM67.0998 9.15813L65.4631 8.41607C66.1784 7.84408 66.7347 6.99381 66.7347 6.60732H63.9055V5H68.8163C68.8163 6.36043 68.5779 7.81316 67.1002 9.15813H67.0998ZM74.5695 9.08083H72.5669C72.9006 8.18418 73.1232 7.47305 73.155 6.60778H69.3726V5H75.094C75.094 6.39135 75.0305 7.70494 74.5695 9.08083Z" fill="black"/>
</g>
<defs>
<clipPath id="clip0_988_1344">
<rect width="26" height="13" fill="white" transform="translate(50 5)"/>
</clipPath>
</defs>
</svg>

<svg xmlns="http://www.w3.org/2000/svg" width="76" height="18" fill="none"><path fill="#000" d="M8 10H0v8h8zM46 18 27.169 0h-9.416999999999998l.02.02L10 18h8.313l5.342-12.357L36.582 18z"/><g fill="#000" clip-path="url(#a)"><path d="M57.466 9.318v1.6h-5.571v4.96h1.636c1.036 0 3.74-.134 5.036-.403l.373 1.554c-1.83.419-5.28.463-6.105.463H50V9.303zm-.033-3.944v1.584h-7.336V5.374zM60.056 5H62v13h-1.944zM76 9.591v1.546H63V9.59zM63.953 18v-3.849h9.186v-.757h-9.265v-1.53h11.14v3.832h-9.17v.774h9.425V18zM67.1 9.158l-1.637-.742c.715-.572 1.272-1.422 1.272-1.809h-2.83V5h4.911c0 1.36-.238 2.813-1.716 4.158m7.47-.077h-2.003c.334-.897.556-1.608.588-2.473h-3.782V5h5.721c0 1.391-.063 2.705-.524 4.08"/></g><defs><clipPath id="a"><path fill="#fff" d="M50 5h26v13H50z"/></clipPath></defs></svg>
